src/topics/icons/lookback.svg

<svg height="121" preserveAspectRatio="xMidYMid" viewBox="0 0 256 121" width="256" xmlns="http://www.w3.org/2000/svg"><path d="m195.984657 0c-13.944944 0-31.12861 8.467058-52.79332 25.8989171-5.727437 4.7319503-10.95713 9.2143508-15.43953 13.1990083-4.232851-3.9846575-9.462545-8.467058-15.439531-13.1990083-21.4165164-17.4318591-38.8483755-25.8989171-52.5451269-25.8989171-32.8727457 0-59.7671491 27.143953-59.7671491 60.2648922 0 33.3691327 26.8944034 60.2648918 59.7671491 60.2648918 13.9449448 0 31.1286105-8.467058 52.7933209-25.8989166 5.727436-4.7319503 10.957129-9.2143508 15.43953-13.1990083 4.232851 3.9846575 9.462544 8.467058 15.43953 13.1990083 21.666067 17.4318586 38.848376 25.8989166 52.793321 25.8989166 32.871389 0 59.767149-27.1439526 59.767149-60.2648918-.248193-33.1209392-27.143953-60.2648922-60.015343-60.2648922zm-102.5988256 70.724279c-22.6615524 17.9296022-32.1240967 18.9264447-33.6186823 18.9264447-15.9372735 0-28.8867321-13.1990083-28.8867321-29.3858315s12.9494586-29.3858314 28.8867321-29.3858314c1.7427791 0 10.9571299.9954862 33.6186823 18.9264447 4.4824006 3.4869143 8.7166076 7.2220221 12.2021656 10.4593867-3.735108 3.2373647-7.719765 6.724279-12.2021656 10.4593868zm43.5789696 3.7351077-20.669224-1.2450359-1.742779-19.921931 12.949459-13.9449448 1.494585 19.921931 20.918774 1.2450359zm59.019856 15.191337c-1.742779 0-10.957129-.9954863-33.618682-18.9264447-4.4824-3.4869144-8.716608-7.2220221-12.202166-10.4593868 3.486915-3.2373646 7.719766-6.7242789 11.953973-10.209837 22.661552-18.1791519 32.124096-19.1746382 33.618682-19.1746382 15.937274 0 28.886732 13.1990083 28.886732 29.3858315.248194 16.1854669-12.701265 29.3844752-28.638539 29.3844752z" fill="#bc1b23"/></svg>

<?xml version="1.0" encoding="UTF-8" standalone="no"?>
<svg width="256px" height="121px" viewBox="0 0 256 121" version="1.1" xmlns="http://www.w3.org/2000/svg" xmlns:xlink="http://www.w3.org/1999/xlink" preserveAspectRatio="xMidYMid">
    <g>
        <path d="M195.984657,0 C182.039713,0 164.856047,8.467058 143.191337,25.8989171 C137.4639,30.6308674 132.234207,35.1132679 127.751807,39.0979254 C123.518956,35.1132679 118.289262,30.6308674 112.312276,25.8989171 C90.8957596,8.467058 73.4639005,0 59.7671491,0 C26.8944034,0 0,27.143953 0,60.2648922 C0,93.6340249 26.8944034,120.529784 59.7671491,120.529784 C73.7120939,120.529784 90.8957596,112.062726 112.56047,94.6308674 C118.287906,89.8989171 123.517599,85.4165166 128,81.4318591 C132.232851,85.4165166 137.462544,89.8989171 143.43953,94.6308674 C165.105597,112.062726 182.287906,120.529784 196.232851,120.529784 C229.10424,120.529784 256,93.3858314 256,60.2648922 C255.751807,27.143953 228.856047,0 195.984657,0 L195.984657,0 Z M93.3858314,70.724279 C70.724279,88.6538812 61.2617347,89.6507237 59.7671491,89.6507237 C43.8298756,89.6507237 30.880417,76.4517154 30.880417,60.2648922 C30.880417,44.078069 43.8298756,30.8790608 59.7671491,30.8790608 C61.5099282,30.8790608 70.724279,31.874547 93.3858314,49.8055055 C97.868232,53.2924198 102.102439,57.0275276 105.587997,60.2648922 C101.852889,63.5022569 97.868232,66.9891712 93.3858314,70.724279 L93.3858314,70.724279 Z M136.964801,74.4593867 L116.295577,73.2143508 L114.552798,53.2924198 L127.502257,39.347475 L128.996842,59.269406 L149.915616,60.5144419 L136.964801,74.4593867 L136.964801,74.4593867 Z M195.984657,89.6507237 C194.241878,89.6507237 185.027528,88.6552374 162.365975,70.724279 C157.883575,67.2373646 153.649367,63.5022569 150.163809,60.2648922 C153.650724,57.0275276 157.883575,53.5406133 162.117782,50.0550552 C184.779334,31.8759033 194.241878,30.880417 195.736464,30.880417 C211.673738,30.880417 224.623196,44.0794253 224.623196,60.2662485 C224.87139,76.4517154 211.921931,89.6507237 195.984657,89.6507237 L195.984657,89.6507237 Z" fill="#BC1B23"></path>
    </g>
</svg>
